packages/kaspersky-hexa-ui-icons/src/iconsSVGs/24/StatusErrorSolid.svg

<svg width="24" height="24" viewBox="0 0 24 24" fill="none" xmlns="http://www.w3.org/2000/svg">
<path fill-rule="evenodd" clip-rule="evenodd" d="M12 22C17.5228 22 22 17.5228 22 12C22 6.47715 17.5228 2 12 2C6.47715 2 2 6.47715 2 12C2 17.5228 6.47715 22 12 22ZM15.7071 8.29289C16.0976 8.68342 16.0976 9.31658 15.7071 9.70711L13.4142 12L15.7071 14.2929C16.0976 14.6834 16.0976 15.3166 15.7071 15.7071C15.3166 16.0976 14.6834 16.0976 14.2929 15.7071L12 13.4142L9.70711 15.7071C9.31658 16.0976 8.68342 16.0976 8.29289 15.7071C7.90237 15.3166 7.90237 14.6834 8.29289 14.2929L10.5858 12L8.29289 9.70711C7.90237 9.31658 7.90237 8.68342 8.29289 8.29289C8.68342 7.90237 9.31658 7.90237 9.70711 8.29289L12 10.5858L14.2929 8.29289C14.6834 7.90237 15.3166 7.90237 15.7071 8.29289Z" fill="black"/>
</svg>

<svg xmlns="http://www.w3.org/2000/svg" width="24" height="24" fill="none" viewBox="0 0 24 24"><path fill="#000" fill-rule="evenodd" d="M12 22c5.5228 0 10-4.4772 10-10S17.5228 2 12 2 2 6.4772 2 12s4.4772 10 10 10m3.7071-13.7071c.3905.3905.3905 1.0237 0 1.4142L13.4142 12l2.2929 2.2929c.3905.3905.3905 1.0237 0 1.4142s-1.0237.3905-1.4142 0L12 13.4142l-2.2929 2.2929c-.3905.3905-1.0237.3905-1.4142 0s-.3905-1.0237 0-1.4142L10.5858 12l-2.293-2.2929c-.3904-.3905-.3904-1.0237 0-1.4142.3906-.3905 1.0238-.3905 1.4143 0L12 10.5858l2.2929-2.293c.3905-.3904 1.0237-.3904 1.4142 0"/></svg>
